build/assets/img/svg/icon-whatsapp.svg

<svg width="24" height="24" viewBox="0 0 24 24" fill="none" xmlns="http://www.w3.org/2000/svg">
<rect width="24" height="24" rx="6" fill="#57BB63"/>
<path fill-rule="evenodd" clip-rule="evenodd" d="M12.1636 20.5364C10.6142 20.5364 9.1586 20.1404 7.8922 19.4454L3 21L4.5948 16.2956C3.7904 14.9742 3.327 13.4246 3.327 11.7682C3.327 6.9256 7.2832 3 12.1638 3C17.0438 3 21 6.9256 21 11.7682C21 16.6108 17.044 20.5364 12.1636 20.5364ZM12.1636 4.3964C8.0668 4.3964 4.7344 7.7034 4.7344 11.7682C4.7344 13.3812 5.2602 14.875 6.1494 16.0904L5.2214 18.828L8.0762 17.9206C9.2494 18.6908 10.6546 19.14 12.1636 19.14C16.2598 19.14 19.5928 15.8332 19.5928 11.7684C19.5928 7.7036 16.2598 4.3964 12.1636 4.3964ZM16.6256 13.7876C16.5712 13.6982 16.4268 13.6442 16.2106 13.5368C15.9938 13.4294 14.9286 12.9092 14.7304 12.8378C14.5316 12.7662 14.387 12.73 14.2428 12.9452C14.0986 13.1604 13.6834 13.6442 13.5568 13.7876C13.4304 13.9312 13.3042 13.9492 13.0876 13.8416C12.8712 13.7342 12.1732 13.5072 11.3456 12.775C10.7018 12.2054 10.267 11.5022 10.1408 11.2868C10.0144 11.0718 10.1274 10.9556 10.2358 10.8486C10.3332 10.7522 10.4524 10.5976 10.5608 10.4722C10.6692 10.3466 10.7052 10.2572 10.7772 10.1136C10.8496 9.9702 10.8134 9.8448 10.7592 9.737C10.705 9.6296 10.2716 8.572 10.0912 8.1416C9.9108 7.7116 9.7306 7.7832 9.604 7.7832C9.4776 7.7832 9.3332 7.7652 9.1888 7.7652C9.0444 7.7652 8.8096 7.819 8.611 8.034C8.4126 8.2492 7.8532 8.7692 7.8532 9.8266C7.8532 10.8842 8.629 11.906 8.7376 12.0492C8.8458 12.1924 10.2356 14.4332 12.4374 15.2938C14.64 16.1542 14.64 15.8672 15.0372 15.8314C15.4338 15.7956 16.3182 15.3116 16.4992 14.8098C16.6794 14.3076 16.6794 13.8772 16.6256 13.7876Z" fill="white"/>
</svg>

<svg width="24" height="24" fill="none" xmlns="http://www.w3.org/2000/svg"><rect width="24" height="24" rx="6" fill="#57BB63"/><path fill-rule="evenodd" clip-rule="evenodd" d="M12.164 20.536a8.851 8.851 0 01-4.272-1.09L3 21l1.595-4.704a8.679 8.679 0 01-1.268-4.528C3.327 6.926 7.283 3 12.164 3 17.044 3 21 6.926 21 11.768c0 4.843-3.956 8.768-8.836 8.768zm0-16.14c-4.097 0-7.43 3.307-7.43 7.372 0 1.613.526 3.107 1.415 4.322l-.928 2.738 2.855-.907a7.425 7.425 0 004.088 1.219c4.096 0 7.429-3.307 7.429-7.372 0-4.064-3.333-7.372-7.43-7.372zm4.462 9.392c-.055-.09-.2-.144-.415-.251-.217-.108-1.282-.628-1.48-.7-.2-.07-.344-.107-.488.108-.144.215-.56.7-.686.843-.127.143-.253.161-.47.054-.216-.108-.914-.335-1.741-1.067-.644-.57-1.079-1.273-1.205-1.488-.127-.215-.014-.331.095-.438.097-.097.216-.251.325-.377.108-.125.144-.215.216-.358.073-.144.036-.27-.018-.377-.054-.107-.487-1.165-.668-1.595-.18-.43-.36-.359-.487-.359-.126 0-.27-.018-.415-.018a.8.8 0 00-.578.269c-.198.215-.758.735-.758 1.793 0 1.057.776 2.079.885 2.222.108.143 1.498 2.384 3.7 3.245 2.202.86 2.202.573 2.6.537.396-.035 1.28-.52 1.461-1.021.18-.502.18-.933.127-1.022z" fill="#fff"/></svg>
